X:195
T: Maggie in the Wood
M: 2/4
L: 1/8
Q: 300
R: Polka
K: G
GD GA|Be e2|dB GA|BA AB/2A/2|
GD GA|Be e2|dB AB/2A/2|G2 G2 :|
gf ed|Be e2|dB GA|BA A2|gf ed|
Be e2|dB AB/2A/2|G2 G2 :|
